X:1
T:O Salutaris Hostia
T:Abbè Duguet, ?-ca. 1767
T:O Salutaris Hostia
T:Public Domain
C:Abb&#232; Duguet, ?-ca. 1767
Z:Public Domain
%%score ( 1 2 ) ( 3 4 )
L:1/8
M:4/4
K:Eb
V:1 treble 
V:2 treble 
V:3 bass 
V:4 bass 
V:1
 [B,E]2 | [EG]2 [DF]2 [EG]2 [EA]2 | [EG]2 [DF]2 [B,E]2 [EG]2 | [EG]2 [DF]2 [EG]2 [FB]2 | %4
 [EB]2 [E=A]2 [DB]2 [EB]2 | [Ec]2 [DB]2 [EG]2 [EA]2 | [FB]2 (AG) [DF]2 [DG]2 | %7
 [CE]2 [DF]2 [EG]2 [EA]2 | [EG]2 [DF]2 [B,E]2 |] %9
V:2
 x2 | x8 | x8 | x8 | x8 | x8 | x2 E2 x4 | x8 | x6 |] %9
V:3
 [E,,G,]2 | [E,B,]2 [B,,B,]2 [E,B,]2 [A,,C]2 | [B,,B,]2 (B,A,) [E,,G,]2 [E,,B,]2 | %3
 [E,B,]2 [B,,B,]2 [E,B,]2 [D,F,]2 | [C,G,]2 [C,F,]2 [B,,F,]2 [E,G,]2 | %5
 [A,,A,]2 [B,,F,]2 (E,D,)(A,C) | [D,B,]2 [E,B,]2 [B,,B,]2 [=B,,G,]2 | %7
 [C,G,]2 [B,,B,]2 [E,B,]2 [A,,C]2 | B,,2 z A, [E,,G,]2 |] %9
V:4
 x2 | x8 | x2 B,,2 x4 | x8 | x8 | x6 C,2 | x8 | x8 | A,3 B,,2 x |] %9

